lib/svg/lock.svg

<svg xmlns="http://www.w3.org/2000/svg" width="12" height="16" viewBox="0 0 12 16"><path d="M4 13H3v-1h1v1zm8-6v7c0 .55-.45 1-1 1H1c-.55 0-1-.45-1-1V7c0-.55.45-1 1-1h1V4c0-2.2 1.8-4 4-4s4 1.8 4 4v2h1c.55 0 1 .45 1 1zM3.8 6h4.41V4c0-1.22-.98-2.2-2.2-2.2-1.22 0-2.2.98-2.2 2.2v2H3.8zM11 7H2v7h9V7zM4 8H3v1h1V8zm0 2H3v1h1v-1z"/></svg>

<?xml version="1.0" encoding="UTF-8" standalone="no"?>
<svg width="12px" height="16px" viewBox="0 0 12 16" version="1.1" xmlns="http://www.w3.org/2000/svg" xmlns:xlink="http://www.w3.org/1999/xlink">
    <!-- Generator: Sketch 3.8.3 (29802) - http://www.bohemiancoding.com/sketch -->
    <title>lock</title>
    <desc>Created with Sketch.</desc>
    <defs></defs>
    <g id="Octicons" stroke="none" stroke-width="1" fill="none" fill-rule="evenodd">
        <g id="lock" fill="#000000">
            <path d="M4,13 L3,13 L3,12 L4,12 L4,13 L4,13 Z M12,7 L12,14 C12,14.55 11.55,15 11,15 L1,15 C0.45,15 0,14.55 0,14 L0,7 C0,6.45 0.45,6 1,6 L2,6 L2,4 C2,1.8 3.8,0 6,0 C8.2,0 10,1.8 10,4 L10,6 L11,6 C11.55,6 12,6.45 12,7 L12,7 Z M3.8,6 L8.21,6 L8.21,4 C8.21,2.78 7.23,1.8 6.01,1.8 C4.79,1.8 3.81,2.78 3.81,4 L3.81,6 L3.8,6 Z M11,7 L2,7 L2,14 L11,14 L11,7 L11,7 Z M4,8 L3,8 L3,9 L4,9 L4,8 L4,8 Z M4,10 L3,10 L3,11 L4,11 L4,10 L4,10 Z" id="Shape"></path>
        </g>
    </g>
</svg>
